X: 21515
M: 3/4
L: 1/8
K: Dm
[|\
a2 g2 f2  |
c4 f2  | {a}g2 {f2}e4  | {e2}f6 |\
a2 g2 f2  | {a}g2 f2 e2  | f2 e2 d2  | (c2 d2 e2 ) |\
(f2 e2 )a2  | A4 d2  | e2 {d2}^c4  | d6 |]


